X: 23548
T: Lift Me!
R: jig
M: 6/8
K: Dmajor
|:~a3 gfe|ded dcd|e2 A f2 A|gab e2 b|~a3 gfe||dfb agf|e2 A gfe|ded dfg:|
|:fdd Add|cde d2 f||efg fed|efe a2 g|fdd Ade|dfb agf|e2 A gfe|ded dfg:|
|:fdf ~a3|~b3 a2 g|fdf agf|e2 b a2 g|fdf gdg|agb agf|ecA GFE|DED D2 d:|

